icon-themes/breeze_svg/cmd/32/dbnewviewsql.svg

<svg viewBox="0 0 32 32" xmlns="http://www.w3.org/2000/svg"><path d="m6.3535156 5.6464844-.7070312.7070312 8.1464846 8.1464844-8.1464846 8.146484.7070312.707032 8.8535154-8.853516zm9.6464844 19.3535156v1h10v-1z" fill="#4d4d4d"/></svg>

<svg xmlns="http://www.w3.org/2000/svg" viewBox="0 0 32 32">
 <path 
     style="fill:#4d4d4d" 
     d="M 6.3535156 5.6464844 L 5.6464844 6.3535156 L 13.792969 14.5 L 5.6464844 22.646484 L 6.3535156 23.353516 L 15.207031 14.5 L 6.3535156 5.6464844 z M 16 25 L 16 26 L 26 26 L 26 25 L 16 25 z "
     />
</svg>
